X: 2
T: The Road To Cashel
R: reel
M: 4/4
L: 1/8
K: Edor
FEED E3B|FE~E2 F2AB|FEED E2BA|1 FDD2 B/c/dAB:|2 FDD2 B/c/dAd||!BA B/c/d egfe|d2ab afed|B/c/d ge ~f3e|dBAF FEE2|!BA B/c/d egfe|d2ab afed|bf~f2 afef|bfaf edBA|!


Tune 3270	Setting 22062

